src/assets/call_icon.svg

<svg width="32" height="33" viewBox="0 0 32 33" fill="none" xmlns="http://www.w3.org/2000/svg">
<path d="M20.3519 21.5541L19.6136 22.3313C19.6136 22.3313 17.8588 24.1788 13.0692 19.1361C8.27955 14.0935 10.0343 12.2461 10.0343 12.2461L10.4992 11.7567C11.6444 10.551 11.7524 8.61524 10.7532 7.20206L8.7093 4.31127C7.47262 2.56218 5.08295 2.33112 3.66549 3.82344L1.12139 6.50191C0.418552 7.24186 -0.0524378 8.20107 0.00468137 9.26515C0.150802 11.9874 1.31405 17.8445 7.80503 24.6783C14.6884 31.9252 21.147 32.2132 23.7882 31.9526C24.6236 31.8701 25.3501 31.4197 25.9356 30.8032L28.2382 28.3791C29.7924 26.7428 29.3541 23.9376 27.3655 22.793L24.2688 21.0105C22.9631 20.2589 21.3723 20.4797 20.3519 21.5541Z" fill="#D8D8D8"/>
<path d="M16.6306 1.02087C16.7379 0.358117 17.3644 -0.091461 18.0271 0.0158238C18.0682 0.023685 18.2003 0.0483545 18.2693 0.0637527C18.4077 0.0945652 18.6006 0.141975 18.8411 0.212045C19.3222 0.352153 19.9942 0.582979 20.8008 0.952747C22.4156 1.69309 24.5646 2.98816 26.7945 5.21814C29.0245 7.44812 30.3196 9.59707 31.0598 11.2119C31.4297 12.0185 31.6605 12.6905 31.8006 13.1715C31.8706 13.4121 31.9181 13.605 31.9489 13.7433C31.9643 13.8125 31.9756 13.868 31.9834 13.909L31.9928 13.9596C32.0999 14.6223 31.6545 15.2748 30.9918 15.3821C30.3309 15.4891 29.7084 15.0416 29.5985 14.3821C29.5951 14.3642 29.5857 14.3167 29.5758 14.2718C29.5557 14.1821 29.5212 14.0397 29.4664 13.8514C29.3566 13.4749 29.1662 12.9151 28.8498 12.2252C28.218 10.8469 27.0818 8.94374 25.0753 6.93732C23.069 4.93092 21.1658 3.79472 19.7876 3.16286C19.0976 2.84653 18.5379 2.65603 18.1612 2.54633C17.973 2.49149 17.7364 2.43718 17.6466 2.41719C16.9869 2.30725 16.5236 1.68173 16.6306 1.02087Z" fill="#D8D8D8"/>
<path fill-rule="evenodd" clip-rule="evenodd" d="M16.9963 6.6115C17.1807 5.96594 17.8536 5.59214 18.4991 5.77658L18.1652 6.94546C18.4991 5.77658 18.4991 5.77658 18.4991 5.77658L18.5016 5.77726L18.504 5.77797L18.5094 5.77954L18.522 5.7833L18.5541 5.79329C18.5784 5.8011 18.609 5.81128 18.6453 5.8242C18.7181 5.85003 18.8144 5.88676 18.9324 5.93733C19.1686 6.03854 19.4911 6.19482 19.8876 6.42938C20.6808 6.89891 21.7639 7.67883 23.0363 8.95116C24.3086 10.2235 25.0884 11.3065 25.558 12.0999C25.7925 12.4962 25.9488 12.8189 26.0501 13.055C26.1007 13.173 26.1375 13.2692 26.1632 13.342C26.1762 13.3784 26.1862 13.4089 26.1942 13.4334L26.2041 13.4654L26.2078 13.478L26.2094 13.4834L26.2101 13.4859C26.2101 13.4859 26.2109 13.4882 25.0419 13.8222L26.2109 13.4882C26.3953 14.1338 26.0214 14.8066 25.376 14.991C24.7359 15.1739 24.0689 14.808 23.8778 14.1725L23.8718 14.1551C23.8632 14.1307 23.8454 14.0828 23.8154 14.0127C23.7554 13.8728 23.6467 13.6439 23.4658 13.3382C23.1043 12.7276 22.4516 11.8049 21.317 10.6703C20.1826 9.53582 19.2598 8.8831 18.6492 8.5217C18.3435 8.34078 18.1147 8.23202 17.9746 8.17205C17.9046 8.14204 17.8566 8.12415 17.8323 8.11551L17.8148 8.10953C17.1794 7.91846 16.8134 7.25156 16.9963 6.6115Z" fill="#D8D8D8"/>
</svg>

<svg xmlns="http://www.w3.org/2000/svg" width="32" height="33" fill="none" viewBox="0 0 32 33"><path fill="#d8d8d8" d="m20.352 21.554-.738.777s-1.755 1.848-6.545-3.195c-4.79-5.042-3.035-6.89-3.035-6.89l.465-.49c1.145-1.205 1.253-3.14.254-4.554L8.71 4.312c-1.236-1.75-3.626-1.98-5.044-.489L1.121 6.502c-.702.74-1.173 1.7-1.116 2.763.146 2.722 1.309 8.58 7.8 15.413 6.883 7.247 13.342 7.535 15.983 7.275.836-.083 1.562-.533 2.148-1.15l2.302-2.424c1.554-1.636 1.116-4.441-.872-5.586l-3.097-1.782c-1.306-.752-2.897-.531-3.917.543M16.63 1.02A1.217 1.217 0 0 1 18.028.017c.041.008.173.032.242.048q.21.044.572.148c.481.14 1.153.371 1.96.74 1.615.741 3.764 2.036 5.994 4.266s3.525 4.38 4.265 5.994c.37.806.6 1.479.74 1.96a9 9 0 0 1 .183.737l.01.05c.107.663-.338 1.316-1.001 1.423a1.216 1.216 0 0 1-1.393-1l-.023-.11a7 7 0 0 0-.11-.42c-.11-.377-.3-.937-.616-1.627-.632-1.378-1.768-3.281-3.775-5.288-2.006-2.006-3.91-3.142-5.287-3.774-.69-.316-1.25-.507-1.627-.617a9 9 0 0 0-.514-.129 1.23 1.23 0 0 1-1.016-1.396"/><path fill="#d8d8d8" fill-rule="evenodd" d="M16.996 6.612a1.216 1.216 0 0 1 1.503-.835l-.334 1.168.334-1.168h.003l.002.001.005.002.013.003.032.01.091.031q.11.038.287.113c.237.102.56.258.956.492.793.47 1.876 1.25 3.148 2.522s2.052 2.355 2.522 3.149c.235.396.39.719.492.955a5 5 0 0 1 .144.378l.01.032.004.013.001.005.001.003s0 .002-1.168.336l1.169-.334a1.216 1.216 0 0 1-2.333.684l-.006-.017a2 2 0 0 0-.057-.142 6 6 0 0 0-.35-.675c-.36-.61-1.013-1.533-2.148-2.668-1.134-1.134-2.057-1.787-2.668-2.148a6 6 0 0 0-.674-.35 3 3 0 0 0-.143-.056l-.017-.006a1.216 1.216 0 0 1-.819-1.498" clip-rule="evenodd"/></svg>
